icons/stack-check-16.svg

<svg width="16" height="16" viewBox="0 0 16 16" xmlns="http://www.w3.org/2000/svg">
<path d="M7.12208 0.392445C7.66506 0.0775182 8.33496 0.0775182 8.87794 0.392445L13.8809 3.29381C14.711 3.77549 14.7108 4.97413 13.8809 5.45592L8.87794 8.35827C8.33508 8.67301 7.66494 8.67302 7.12208 8.35827L2.11915 5.45592C1.28917 4.97413 1.28904 3.77549 2.11915 3.29381L7.12208 0.392445ZM8.12501 1.6903C8.04751 1.64541 7.95251 1.64541 7.87501 1.6903L3.24415 4.37487L7.87501 7.06041C7.95239 7.10512 8.04762 7.10512 8.12501 7.06041L12.7549 4.37487L8.12501 1.6903Z"/>
<path d="M1.60157 7.78917C1.80937 7.4309 2.26769 7.30897 2.62598 7.51671L7.87501 10.5607C8.23282 10.7685 8.35484 11.227 8.14747 11.5851C7.93965 11.9434 7.48039 12.0654 7.12208 11.8575L1.87403 8.81359C1.51575 8.60579 1.39382 8.14747 1.60157 7.78917Z"/>
<path d="M1.60157 11.2892C1.80937 10.9309 2.26769 10.809 2.62598 11.0167L7.87501 14.0607C8.23282 14.2685 8.35484 14.727 8.14747 15.0851C7.93965 15.4434 7.48039 15.5654 7.12208 15.3575L1.87403 12.3136C1.51575 12.1058 1.39382 11.6475 1.60157 11.2892Z"/>
<path d="M14.7012 10.4894C14.9832 10.1863 15.4575 10.1693 15.7607 10.4513C16.0639 10.7334 16.0808 11.2076 15.7988 11.5109L12.0801 15.5109C11.9422 15.6591 11.7503 15.7456 11.5479 15.7501C11.3453 15.7546 11.1493 15.6764 11.0049 15.5343L9.22364 13.7823C8.92841 13.4918 8.9253 13.016 9.21583 12.7208C9.5064 12.426 9.98128 12.4226 10.2764 12.713L11.5068 13.9239L14.7012 10.4894Z"/>
</svg>

<svg xmlns="http://www.w3.org/2000/svg" width="16" height="16" viewBox="0 0 16 16"><path d="M7.122.392a1.75 1.75 0 0 1 1.756 0l5.003 2.902c.83.481.83 1.68 0 2.162L8.878 8.358a1.75 1.75 0 0 1-1.756 0L2.119 5.456a1.25 1.25 0 0 1 0-2.162zM8.125 1.69a.25.25 0 0 0-.25 0L3.244 4.375 7.875 7.06a.25.25 0 0 0 .25 0l4.63-2.685zM1.602 7.789a.75.75 0 0 1 1.024-.272l5.249 3.044a.749.749 0 1 1-.753 1.296L1.874 8.814a.75.75 0 0 1-.272-1.025m0 3.5a.75.75 0 0 1 1.024-.272l5.249 3.044a.749.749 0 1 1-.753 1.296l-5.248-3.043a.75.75 0 0 1-.272-1.025m13.099-.8a.75.75 0 0 1 1.098 1.022l-3.719 4a.75.75 0 0 1-1.075.023l-1.781-1.752a.75.75 0 1 1 1.052-1.069l1.231 1.211z"/></svg>
